X:391
T:Isle of Skie,The. RH.391
R:Reel
S:Rev.R.Harrison’s MS,c1815,Cumbria
N:The last note was double the length. PJH.
O:England
A:Temple Sowerby,Cumbria
Z:vmp.Simon Wilson. Review PJH, 2008.
M:C
L:1/8
Q:2/4=70
K:D
c|dAFA dAFA|GEEd eBBc|dAFA dAFA|GEEA FDDc|!
dA F/G/A/F/ dA F/G/A/F/|GEEd eBBc|\
dA F/G/A/F/ dA F/G/A/F/|GE F/G/A/G/ FDD||!
a|adab afdf|edef eBBa|adad’ afdf|edeg d2dg|!
ad a/d’/c’/b/ afdf|edef eBBa|\
adad c’dd’d|d’daf d/d/dd|]

